!!!COM: Frank Martin
!!!OTL: [T533_Mai-w5p2m1-15]
**kern	**dynam	**kern	**dynam	**kern	**dynam	**kern	**dynam
*grp:A	*	*grp:B	*	*grp:B	*	*grp:B	*
*part4	*part4	*part3	*part3	*part2	*part2	*part1	*part1
*staff4	*	*staff3	*	*staff2	*	*staff1	*
*I"Violoncello	*	*I"Viola	*	*I"Violin II	*	*I"Violin I	*
*I'Vc.	*	*I'Vla.	*	*I'Vln. II	*	*I'Vln. I	*
*ICstr	*	*ICstr	*	*ICstr	*	*ICstr	*
*Icello	*	*Iviola	*	*Ivioln	*	*Ivioln	*
*clefF4	*	*clefC3	*	*clefG2	*	*clefG2	*
*k[b-]	*	*k[b-]	*	*k[b-]	*	*k[b-]	*
*F:	*	*F:	*	*F:	*	*F:	*
*M3/4	*	*M3/4	*	*M3/4	*	*M3/4	*
=1	=1	=1	=1	=1	=1	=1	=1
!	!	!	!	!	!	!LO:TX:t=[[quarter]=68]	!
!	!	!	!	!	!	!LO:TX:a:B:t=Andante con moto	!
4%3r	.	4ee^	f >	4ff^	f >	4aa^	f >
.	.	4ee~	.	4ff~	.	4aa~	.
.	.	4ee~	]	4ff~	]	4aa~	]
*clefC4	*	*	*	*	*	*	*
=2	=2	=2	=2	=2	=2	=2	=2
!	!LO:DY:t= %s molto espress.	!	!	!	!	!	!
2dd^	f	(4ee~	mf	(4ff~	mf	(4aa~	mf
.	.	4ee~	.	4ff~	.	4aa~	.
[4d	.	4ee~)	.	4ff~)	.	4aa~)	.
=3	=3	=3	=3	=3	=3	=3	=3
8d]	.	(4ee~	.	(4ff~	.	(4aa~	.
8r	.	.	.	.	.	.	.
8r	.	4ee~	.	4ff~	.	4aa~	.
(4a	.	.	.	.	.	.	.
.	.	4dd~)	.	4ff~)	.	4ff~)	.
8b-)	.	.	.	.	.	.	.
=4	=4	=4	=4	=4	=4	=4	=4
[2.a	< [	(4cc#X~	.	(4ee~	.	(4ff~	.
.	.	4ccn~	.	4ee~	.	4ff~	.
.	.	4bn~)	.	4ee~)	.	4ff~)	.
=5	=5	=5	=5	=5	=5	=5	=5
8a]	.	(4b-X~	.	(4ee~	.	(4ff~	.
(4g	>	.	.	.	.	.	.
.	.	4b-~	.	4dd~	.	4ff~	.
8f)	.	.	.	.	.	.	.
(8gL	]	4b-~)	.	4dd~)	.	4ee~)	.
8aJ)	.	.	.	.	.	.	.
=6	=6	=6	=6	=6	=6	=6	=6
([2f	.	(4a~	.	(4dd~	.	(4ee~	.
.	.	4a~	.	4cc#X~	.	4ee~	.
8fL]	.	4a~)	.	4ccn~)	.	4dd~)	.
8gJ)	.	.	.	.	.	.	.
=7	=7	=7	=7	=7	=7	=7	=7
[2.e	> ]	(4a~	.	(4b-~	.	(4dd~	.
.	.	4a~	.	4b-~	.	4dd~	.
.	.	4g~)	.	4b-~)	.	4dd~)	.
=8	=8	=8	=8	=8	=8	=8	=8
8e]	.	(4d~	<	(4b-~	<	(4b-~	<
8r	.	.	.	.	.	.	.
4r	.	(4.c#X~	.	4a~	.	4b-~	.
4r	.	.	.	4g~)	.	4b-~)	.
.	.	8A))	[	.	[	.	[
=9	=9	=9	=9	=9	=9	=9	=9
4%3r	.	(4e~	>	(4f~	>	(4a~	>
.	.	4e~	.	4f~	.	4a~	.
.	.	4e~)	]	4f~)	]	4a~)	]
=10	=10	=10	=10	=10	=10	=10	=10
2dd^	f	(4e~	.	(4f~	.	(4a~	.
.	.	4e~	.	4f~	.	4a~	.
[4d	.	4e~)	.	4f~)	.	4a~)	.
=11	=11	=11	=11	=11	=11	=11	=11
8dL]	.	(4d~	.	(4f~	.	(4a~	.
(8e	.	.	.	.	.	.	.
8f	.	4c#X~	.	4e~	.	4a~	.
8gJ)	.	.	.	.	.	.	.
([4a	.	4cn~)	.	4e~)	.	4f~)	.
=12	=12	=12	=12	=12	=12	=12	=12
8aL]	.	(4Bn~	.	(4e~	.	(4f~	.
8bnJ)	.	.	.	.	.	.	.
(4.cc	.	4A~	.	4e~	.	4f~	.
.	.	4G#X~)	.	4e~)	.	4f~)	.
8b)	.	.	.	.	.	.	.
=13	=13	=13	=13	=13	=13	=13	=13
(8bn	.	(4G#X~	.	(4d~	.	(4f~	.
4b-X	.	.	.	.	.	.	.
.	.	4Gn~	.	4d~	.	4f~	.
8a)	.	.	.	.	.	.	.
(8aL	.	4G~)	.	4d~)	.	4e~)	.
8b-J)	.	.	.	.	.	.	.
=14	=14	=14	=14	=14	=14	=14	=14
(4.a	.	(4G~	.	(4c~	.	(4e~	.
.	.	4F#X~	.	4c~	.	4d~	.
8g)	.	.	.	.	.	.	.
[4g	.	4Fn~)	.	4c~)	.	4d~)	.
=15	=15	=15	=15	=15	=15	=15	=15
8gL]	.	4F~	.	(4Bn~	.	(4d~	.
(8Bn	.	.	.	.	.	.	.
8c#X	.	(8EL	.	4B-X~	.	4g~	.
8dJ)	.	8DJ)	.	.	.	.	.
(8eL	.	4C#X~	.	4B-~)	.	4g~)	.
8fJ)	.	.	.	.	.	.	.
=	=	=	=	=	=	=	=
*-	*-	*-	*-	*-	*-	*-	*-
!!!system-decoration: [(s1,s2,s3,s4)]
!!!EED: Claudio de Freitas
!!!EED2: Jason Lee
!!!EEV2: 2022/02/17
